!!!COM: Matthias Weckmann
!!!OPR: O lux beata trinitas
!!!OTL: Variatio 3.  Canon in Hypodiapason post Semiminimam.
!!!YOR: From "Matthias Weckmann Choralbearbeitungen" edited by Werner Breig
!!!YOR: Baerenreiter Publisher, Kassel, 1979; pp. 92-95.
**kern	**kern	**kern
*conseq	*guida	*CF
*k[]	*k[]	*k[]
*M4/4	*M4/4	*M4/4
=91-	=91-	=91-
4r	8r	1a
.	16D	.
.	16E	.
8r	8F	.
16DD	16F	.
16EE	16G	.
8FF	8A	.
16FF	16A	.
16GG	16B	.
8AA	8c	.
16AA	16c	.
16BB	16d	.
=92	=92	=92
8C	8e	1g
16C	16E	.
16D	16F	.
8E	8G	.
16EE	16G	.
16FF	16A	.
8GG	8B	.
16GG	16B	.
16AA	16c	.
8BB	8d	.
16BB	16c	.
16C	16B	.
=93	=93	=93
8D	8.A	1f
16C	.	.
16BB	16G	.
8.AA	16F	.
.	16E	.
.	16F	.
16GG	16G	.
16FF	8.A	.
16EE	.	.
16FF	.	.
16GG	16B	.
8.AA	4c	.
16BB	.	.
=94	=94	=94
4C	8r	1e
.	16g	.
.	16f	.
8r	8.e	.
16G	.	.
16F	16d	.
8.E	8.c	.
16D	16B	.
8.C	8.A	.
16BB	16G	.
=95	=95	=95
8.AA	8F	1f
.	16f	.
16GG	16e	.
8FF	8.d	.
16F	.	.
16E	16c	.
8.D	8.B-	.
16C	16A	.
8.BB-	8.B-	.
16AA	16F	.
=96	=96	=96
8.BB-	8.G	1d
16FF	16A	.
8.GG	[4B-	.
16AA	.	.
[4BB-	16B-]	.
.	16c	.
.	16B-	.
.	16c	.
16BB-]	[4d	.
16C	.	.
16BB-	.	.
16C	.	.
=97	=97	=97
[4D	16d]	1f
.	16e	.
.	16d	.
.	16e	.
16D]	8.f	.
16E	.	.
16D	.	.
16E	16e	.
8.F	8.d	.
16E	16c	.
8.D	8.B-	.
16C	16A	.
=98	=98	=98
8.BB-	8.B-	1f
16AA	16c	.
8.BB-	8.d	.
16C	16e	.
8.D	8f	.
.	16e	.
16E	16d	.
8F	8c	.
16E	8d	.
16D	.	.
=99	=99	=99
8C	16e	1g
.	16f	.
8D	16e	.
.	16d	.
16E	4c	.
16F	.	.
16E	.	.
16D	.	.
4C	8g	.
.	16f	.
.	16e	.
8G	8.d	.
16F	.	.
16E	16e	.
=100	=100	=100
8.D	8.f	1a
16E	16g	.
8.F	8.a	.
16G	16g	.
8.A	8f	.
.	[8e	.
16G	.	.
8F	16e]	.
.	8d	.
[8E	.	.
.	16c#	.
=101	=101	=101
16E]	8d	1a
8D	.	.
.	8e	.
16C#	.	.
8D	16f	.
.	16F	.
8E	8G	.
16F	8A	.
16FF	.	.
8GG	8B	.
8AA	16cn	.
.	16Cn	.
8BB	8D	.
=102	=102	=102
16C	8E	1g
16CC	.	.
8DD	8F	.
8EE	8G	.
8FF	8A	.
8GG	8B	.
8AA	8c	.
8BB	16d	.
.	16D	.
8C	8E	.
=103	=103	=103
16D	8F	1r
16DD	.	.
8EE	8G	.
8FF	4A	.
8GG	.	.
4AA	8r	.
.	8c#	.
8r	8d	.
8C#	8e	.
=104	=104	=104
8D	8f	1a
8E	8g	.
8F	16a	.
.	16A	.
8G	8B	.
16A	8cn	.
16AA	.	.
8BB	8d	.
8Cn	16e	.
.	16E	.
8D	8F	.
=105	=105	=105
16E	8G	1g
16EE	.	.
8FF	8r	.
8GG	16g	.
.	16G	.
8r	8A	.
16G	8B	.
16GG	.	.
8AA	8c	.
8BB	8d	.
8C	8e	.
=106	=106	=106
8D	16f	1f
.	16F	.
8E	8G	.
16F	8A	.
16FF	.	.
8GG	8r	.
8AA	16A	.
.	16F	.
8r	16A	.
.	16B	.
16AA	[4c	.
16FF	.	.
16AA	.	.
16BB	.	.
=107	=107	=107
[4C	16c]	1e
.	16A	.
.	16c	.
.	16d	.
16C]	4e	.
16AA	.	.
16C	.	.
16D	.	.
4E	16c	.
.	16A	.
.	16c	.
.	16B	.
16C	8.A	.
16AA	.	.
16C	.	.
16BB	16G	.
=108	=108	=108
8.AA	16F	1f
.	8f	.
16GG	16e	.
16FF	8.d	.
8F	.	.
16E	16c	.
8.D	8.B-	.
16C	16F	.
8.BB-	16G	.
.	16A	.
.	16G	.
16FF	16A	.
=109	=109	=109
16GG	4B-	1d
16AA	.	.
16GG	.	.
16AA	.	.
4BB-	16D	.
.	16E	.
.	16D	.
.	16E	.
16DD	16F	.
16EE	16G	.
16DD	16F	.
16EE	16G	.
16FF	16A	.
16GG	16B-	.
16FF	16A	.
16GG	16B-	.
=110	=110	=110
16AA	16F	1f
16BB-	16G	.
16AA	16F	.
16BB-	16G	.
16FF	4A	.
16GG	.	.
16FF	.	.
16GG	.	.
4AA	16f	.
.	16e	.
.	16f	.
.	16e	.
16F	16d	.
16E	16c	.
16F	16d	.
16E	16c	.
=111	=111	=111
16D	4B-	1f
16C	.	.
16D	.	.
16C	.	.
4BB-	16f	.
.	16e	.
.	16f	.
.	16e	.
16F	16d	.
16E	16c	.
16F	16d	.
16E	16c	.
16D	16B-	.
16C	16A	.
16D	16B-	.
16C	16A	.
=112	=112	=112
16BB-	4G	1g
16AA	.	.
16BB-	.	.
16AA	.	.
4GG	16g	.
.	16f	.
.	16g	.
.	16f	.
16G	16e	.
16F	16d	.
16G	16e	.
16F	16d	.
16E	16c	.
16D	16Bn	.
16E	16c	.
16D	16B	.
=113	=113	=113
16C	4A	1a
16BBn	.	.
16C	.	.
16BB	.	.
4AA	16a	.
.	16g	.
.	16a	.
.	16g	.
16A	8f	.
16G	.	.
16A	[8e	.
16G	.	.
8F	16e]	.
.	8d	.
[8E	.	.
.	16c#	.
=114	=114	=114
16E]	8d	1a
8D	.	.
.	[8A	.
16C#	.	.
8D	16A]	.
.	16B	.
[8AA	16cn	.
.	16A	.
16AA]	8.c	.
16BB	.	.
16Cn	.	.
16AA	16d	.
8.C	16e	.
.	16c	.
.	[8e	.
16D	.	.
=115	=115	=115
16E	16e]	1g
16C	16f	.
[8E	16g	.
.	16e	.
16E]	8g	.
16F	.	.
16G	16r	.
16E	16g	.
8G	16e	.
.	8c	.
16r	.	.
16G	16B	.
16E	8.c	.
8C	.	.
16BB	16d	.
=116	=116	=116
8.C	16e	1r
.	8c	.
16D	16B	.
16E	16c	.
8C	8A	.
16BB	16G#	.
16C	16A	.
8AA	8F	.
16GG#	16E	.
16AA	8.F	.
8FF	.	.
16EE	16Gn	.
=117	=117	=117
8.FF	16A	1a
.	8f	.
16GGn	16e	.
16AA	16f	.
8F	8d	.
16E	16c#	.
16F	8d	.
8D	.	.
.	8A	.
16C#	.	.
8D	4r	.
8AA	.	.
=118	=118	=118
4r	16G	1b
.	8g	.
.	16f#	.
16GG	16g	.
8G	8e	.
16F#	16d#	.
16G	8e	.
8E	.	.
.	8B	.
16D#	.	.
8E	4r	.
8BB	.	.
=119	=119	=119
4r	16A	1cc
.	8a	.
.	16g	.
16AA	16a	.
8A	8fn	.
16G	16e	.
16A	8f	.
8F	.	.
.	8c	.
16E	.	.
8F	16dn	.
.	8f	.
8C	.	.
.	16e	.
=120	=120	=120
16D	16f	1a
8F	8d	.
16E	16c#	.
16F	8d	.
8D	.	.
.	8A	.
16C#	.	.
8D	8r	.
8AA	16cn	.
.	16d	.
8r	16e	.
.	8c	.
16Cn	.	.
16D	16B	.
=121	=121	=121
16E	16c	1g
8C	8e	.
16BB	16d	.
16C	16e	.
8E	8c	.
16D	16B	.
16E	8c	.
8C	.	.
.	8G	.
16BB	.	.
8C	4r	.
8GG	.	.
=122	=122	=122
16r	8.B	1g
8GG	.	.
16AA	16c	.
8.BB	8.G	.
16C	16A	.
8.GG	8.B	.
16AA	16c	.
8.BB	[4d	.
16C	.	.
=123	=123	=123
2D	4d]	1f
.	8.A	.
.	16B-	.
8.AA	8.F	.
16BB-	16G	.
8.FF	8.A	.
16GG	16B-	.
=124	=124	=124
8.AA	4c	1e
16BB-	.	.
4C	8.G	.
.	16A	.
8.GG	8.E	.
16AA	16F	.
8.EE	8.G	.
16FF	16A	.
=125	=125	=125
8.GG	4B-	1r
16AA	.	.
4BB-	8.F	.
.	16G	.
8.FF	4A	.
16GG	.	.
4AA	8.f	.
.	16e	.
=126	=126	=126
8.F	4d	1f
16E	.	.
4D	8.f	.
.	16e	.
8.F	8.d	.
16E	16c	.
8.D	8.B-	.
16C	16A	.
=127	=127	=127
8.BB-	8.G	1g
16AA	16A	.
8.GG	8.Bn	.
16AA	16c	.
8.BBn	8.G	.
16C	16A	.
8.GG	[4Bn	.
16AA	.	.
=128	=128	=128
[4BBn	16B]	1d
.	16A	.
.	16B	.
.	16c	.
16BB]	8.d	.
16AA	.	.
16BB	.	.
16C	16E	.
8.D	8.F	.
16EE	16G	.
8.FF	[4A	.
16GG	.	.
=129	=129	=129
[4AA	16A]	1f
.	16B	.
.	16c	.
.	16A	.
16AA]	8.f	.
16BB	.	.
16C	.	.
16AA	16e	.
8.F	8.d	.
16E	16c	.
8.D	16B-	.
.	16A	.
.	16B-	.
16C	16c	.
=130	=130	=130
16BB-	8.d	1f
16AA	.	.
16BB-	.	.
16C	16c	.
8.D	8B-	.
.	[8F	.
16C	.	.
8BB-	16F]	.
.	16G	.
[8FF	16A	.
.	16F	.
16FF]	8.c	.
16GG	.	.
16AA	.	.
16FF	16d	.
=131	=131	=131
8.C	8.e	1g
16D	16f	.
8.E	8g	.
.	[8G	.
16F	.	.
8G	16G]	.
.	16A	.
[8GG	16Bn	.
.	16G	.
16GG]	8.d	.
16AA	.	.
16BBn	.	.
16GG	16e	.
=132	=132	=132
8.D	8.f	1a
16E	16G	.
8.F	8.A	.
16GG	16B	.
8.AA	8.c	.
16BB	16d	.
8.C	16A	.
.	16G	.
.	16A	.
16D	16B	.
=133	=133	=133
16AA	8.c#	1a
16GG	.	.
16AA	.	.
16BB	16d	.
8.C#	8A	.
.	16A	.
16D	16B	.
8AA	8cn	.
16AA	16c	.
16BB	16d	.
8Cn	8e	.
16C	16e	.
16D	16f	.
=134	=134	=134
8E	8g	1g
16E	16G	.
16F	16A	.
8G	8.B	.
16GG	.	.
16AA	16c	.
8.BB	8G	.
.	16G	.
16C	16A	.
8GG	8B	.
16GG	16B	.
16AA	16c	.
=135	=135	=135
8BB	8.d	1r
16BB	.	.
16C	16e	.
8.D	8.f	.
16E	16c	.
8.F	8d	.
.	16d	.
16C	16e	.
8D	8f	.
16D	16f	.
16E	16g	.
=136	=136	=136
8F	8.a	1r
16F	.	.
16G	16e	.
8.A	8.f	.
16E	16g	.
8.F	8a	.
.	16a	.
16G	16b	.
8A	8cc	.
16A	16cc	.
16B	16dd	.
!! Variatio 4.
!conseq	!guida	!CF
*	*x	*x
!conseq	!CF	!guida
*x	*x	*
!CF	!conseq	!guida
=137	=137	=137
1A	8c	4ee
.	16c	.
.	16d	.
.	4e	8r
.	.	16a
.	.	16b
.	8r	8cc
.	16A	16cc
.	16B	16dd
.	8c	8ee
.	16c	16ee
.	16d	16ff
=138	=138	=138
1G	8e	8gg
.	16e	16ff
.	16f	16ee
.	8g	8dd
.	16f	16g
.	16e	16a
.	8d	8b
.	16G	16b
.	16A	16cc
.	8B	8dd
.	16B	16dd
.	16c	16ee
=139	=139	=139
1F	8d	8ff
.	16d	16ee
.	16e	16dd
.	8f	8cc
.	16e	16f
.	16d	16g
.	8c	8a
.	16F	16a
.	16G	16b
.	8A	8cc
.	16A	16cc
.	16B	16dd
=140	=140	=140
1E	8c	8ee
.	16c	16ee
.	16d	16ff
.	8e	8gg
.	16e	16gg
.	16f	16ff
.	8g	8ee
.	16g	16ee
.	16f	16dd
.	8e	8cc
.	16e	16cc
.	16d	16b
=141	=141	=141
1F	8c	8a
.	16c	16a
.	16B	16g
.	8A	8f
.	16A	16cc
.	16G	16b
.	8F	8a
.	16c	16a
.	16B	16g
.	8A	16f
.	.	16d
.	16A	16f
.	16G	16g
=142	=142	=142
1D	16F	8a
.	16D	.
.	16F	[8dd
.	16G	.
.	8A	16dd]
.	.	16cc
.	[8d	8b-
.	16d]	8a
.	16c	.
.	8B-	[8ff
.	8A	16ff]
.	.	16ee
.	[8f	8dd
=143	=143	=143
1F	16f]	8.cc
.	16e	.
.	8d	.
.	.	16bn
.	8.c	8.a
.	16Bn	16b
.	8.A	8cc
.	.	[8ff
.	16B	.
.	8c	16ff]
.	.	16ee
.	[8f	8dd
=144	=144	=144
1F	16f]	8.cc
.	16e	.
.	8d	.
.	.	16b-
.	8.c	8.a
.	16B-	16g
.	8.A	16f
.	.	8ff
.	16G	16ee
.	16F	8dd
.	8f	.
.	.	8cc
.	16e	.
=145	=145	=145
1G	8d	8bn
.	8c	8a
.	8B	16g
.	.	8gg
.	8A	.
.	.	16ff
.	16G	8ee
.	8g	.
.	.	[8dd
.	16f	.
.	8e	16dd]
.	.	8cc
.	[8d	.
.	.	16b
=146	=146	=146
1A	16d]	16cc
.	8c	16ee
.	.	8dd
.	16B	.
.	16c	16ee
.	16e	8cc
.	8d	.
.	.	16b
.	16e	8cc
.	8c	.
.	.	8dd
.	16B	.
.	8c	8ee
.	8d	8ff
=147	=147	=147
1A	8e	8ee
.	8f	[8aa
.	8e	16aa]
.	.	16gg
.	[8a	8ff
.	16a]	8ee
.	16g	.
.	8f	8dd
.	8e	8ee
.	8d	8ff
=148	=148	=148
1G	8e	8gg
.	8f	16ff
.	.	16ee
.	8g	8.dd
.	16f	.
.	16e	16cc
.	8.d	8.b
.	16c	16ee
.	8.B	8.dd
.	16e	16cc
=149	=149	=149
1r	8.d	8.b
.	16c	16a
.	8.B	4g
.	16A	.
.	4G	8.gg
.	.	16ff
.	8.g	8.ee
.	16f	16dd
=150	=150	=150
1A	8.e	8.cc
.	16d	16b
.	8.c	8.a
.	16B	16b
.	8.A	8.cc
.	16B	16dd
.	8.c	8.ee
.	16d	16ff
=151	=151	=151
1G	8.e	4b
.	16f	.
.	4B	8.g
.	.	16a
.	8.G	8.b
.	16A	16cc
.	8.B	8.dd
.	16c	16ee
=152	=152	=152
1F	8.d	4a
.	16e	.
.	4A	8.f
.	.	16g
.	8.F	8.a
.	16G	16b
.	8.A	8.cc
.	16B	16dd
=153	=153	=153
1E	8.c	4g
.	16d	.
.	4G	8.gg
.	.	16ff
.	8.g	8.ee
.	16f	16dd
.	8.e	8.cc
.	16d	16b
=154	=154	=154
1F	8.c	4a
.	16B	.
.	4A	8.cc
.	.	16b
.	8.c	8.a
.	16B	16g
.	8.A	8.f
.	16G	16e
=155	=155	=155
1D	8.F	4f
.	16E	.
.	4F	8.d
.	.	16e
.	8.D	8.f
.	16E	16g
.	8.F	8.a
.	16G	16dd
=156	=156	=156
1F	8.A	8.cc
.	16d	16b
.	8.c	8.a
.	16B	16g
.	8.A	4f
.	16G	.
.	4F	8.aa
.	.	16bb
=157	=157	=157
1F	8.a	8.ccc
.	16b	16bb
.	8.cc	8.aa
.	16b	16gg
.	8.a	8.ff
.	16g	16ee
.	8.f	8.dd
.	16e	16cc
=158	=158	=158
1G	8.d	8.b
.	16c	16a
.	8.B	4g
.	16A	.
.	4G	8.gg
.	.	16ff
.	8.g	8.ee
.	16f	16dd
=159	=159	=159
1A	8.e	8.cc
.	16d	16b
.	8.c	4a
.	16B	.
.	4A	8.ee
.	.	16dd
.	8.e	8.cc
.	16d	16b
=160	=160	=160
1A	8.c	8.a
.	16B	16b
.	8.A	8.cc
.	16B	16dd
.	8.c	4ee
.	16d	.
.	4e	8.ee
.	.	16ff
=161	=161	=161
1G	8.e	4gg
.	16f	.
.	4g	8.b
.	.	16cc
.	8.B	4dd
.	16c	.
.	4d	8.dd
.	.	16cc
=162	=162	=162
1r	8.d	4b
.	16c	.
.	4B	8.gg
.	.	16ff
.	8.g	4ee
.	16f	.
.	4e	8.ee
.	.	16dd
=163	=163	=163
1A	8.e	4cc#
.	16d	.
.	4c#	8.aa
.	.	16gg
.	8.a	4ff#
.	16g	.
.	4f#	8.ff#
.	.	16ee
=164	=164	=164
1B	8.f#	4dd
.	16e	.
.	4d	8.bb
.	.	16aa
.	8.b	4gg
.	16a	.
.	4g	8.gg
.	.	16ffn
=165	=165	=165
1c	8.g	4ee
.	16f	.
.	4e	8.gg
.	.	16ff
.	8.g	4ee
.	16f	.
.	4e	8.ee
.	.	16dd
=166	=166	=166
1A	8.e	4cc
.	16d	.
.	4c	8.a
.	.	16b
.	8.A	8.cc
.	16B	16dd
.	8.c	4ee
.	16d	.
=167	=167	=167
1G	4e	4b
.	4B	8.g
.	.	16a
.	8.G	4b
.	16A	.
.	4B	8.b
.	.	16cc
=168	=168	=168
1G	8.B	4dd
.	16c	.
.	4d	8.g
.	.	16a
.	8.G	8.b
.	16A	16cc
.	8.B	4dd
.	16c	.
=169	=169	=169
1F	4d	4a
.	4A	8.f
.	.	16g
.	8.F	8.a
.	16G	16b
.	8.A	8.cc
.	16B	16dd
=170	=170	=170
1E	8.c	8.ee
.	16d	16ff
.	8.e	8.gg
.	16f	16aa
.	8.g	8.gg
.	16a	16ff
.	8.g	8.ee
.	16f	16dd
=171	=171	=171
1r	8.e	8.cc
.	16d	16dd
.	8.c	8.ee
.	16d	16ff
.	8.e	8.ee
.	16f	16dd
.	8.e	8.cc
.	16d	16b
=172	=172	=172
1F	8.c	4a
.	16B	.
.	4A	16aa
.	.	16bb
.	.	16gg
.	.	16aa
.	16a	16ff
.	16b	16gg
.	16g	16ee
.	16a	16ff
.	16f	16dd
.	16g	16ee
.	16e	16cc
.	16f	16dd
=173	=173	=173
1G	16d	4b
.	16e	.
.	16c	.
.	16d	.
.	4B	16g
.	.	16b
.	.	16a
.	.	16cc
.	16G	16b
.	16B	16dd
.	16A	16cc
.	16c	16ee
.	16B	16dd
.	16d	16ff
.	16c	16ee
.	16e	16gg
=174	=174	=174
1D	16d	16ff
.	16f	16aa
.	16e	16gg
.	16g	16bb-
.	16f	8aa
.	16a	.
.	16g	8dd
.	16b-	.
.	8a	16cc
.	.	16dd
.	8d	16b-
.	.	16cc
.	16c	8a
.	16d	.
.	16B-	8dd
.	16c	.
=175	=175	=175
1F	8A	16cc
.	.	16dd
.	8d	16b-
.	.	16cc
.	16c	16a
.	16d	16b-
.	16B-	16g
.	16c	16a
.	16A	[4f
.	16B-	.
.	16G	.
.	16A	.
.	[4F	16f]
.	.	16a
.	.	16g
.	.	16b-
=176	=176	=176
1F	16F]	16a
.	16A	16cc
.	16G	16b-
.	16B-	16dd
.	16A	8cc
.	16c	.
.	16B-	[8ff
.	16d	.
.	8c	16ff]
.	.	16gg
.	[8f	16ee
.	.	16ff
.	16f]	16dd
.	16g	16ee
.	16e	16cc
.	16f	16dd
=177	=177	=177
1G	16d	16bn
.	16e	16cc
.	16c	16a
.	16d	16b
.	16B	8g
.	16c	.
.	16A	[8gg
.	16B	.
.	8G	16gg]
.	.	16aa
.	[8g	16ff
.	.	16gg
.	16g]	16ee
.	16a	16ff
.	16f	16dd
.	16g	16ee
=178	=178	=178
1A	16e	8cc
.	16f	.
.	16d	[8ee
.	16e	.
.	8c	16ee]
.	.	16ff
.	[8e	16dd
.	.	16ee
.	16e]	16cc
.	16f	16dd
.	16d	16b
.	16e	16cc
.	16c	8a
.	16d	.
.	16B	[8cc
.	16c	.
=179	=179	=179
1A	8A	16cc]
.	.	16dd
.	[8c	16ee
.	.	16ff
.	16c]	8ee
.	16d	.
.	16e	8aa
.	16f	.
.	8e	16cc
.	.	16b
.	8a	16cc
.	.	16dd
.	16c	16ee
.	16B	16dd
.	16c	16ee
.	16d	16ff
=180	=180	=180
[1G	16e	4gg
.	16d	.
.	16e	.
.	16f	.
.	4g	16b
.	.	16a
.	.	16b
.	.	16cc
.	16B	16dd
.	16A	16cc
.	16B	16dd
.	16c	16ee
.	16d	16b
.	16c	16a
.	16d	16b
.	16e	16cc#
=181	=181	=181
1G_	16B	4dd
.	16A	.
.	16B	.
.	16c#	.
.	4d	8g
.	.	8gg
.	8G	16ff
.	.	16gg
.	8g	16ee
.	.	16ff
.	16f	16dd
.	16g	16ee
.	16e	16ccn
.	16f	16dd
=182	=182	=182
1G]	1d	1b
==	==	==
*-	*-	*-
!!!CDT: 1621///-1674//
!!!OCY: Deutschland
!!!ODT: <1674
!!!AFR: organ chorale
!!!AST: polyphony
!!!AMT: simple quadruple
!!!AIN: organ
!!!YEP: David Huron and Denis Collins
!!!YEN: Canada
!!!EEV: 1.0
!!!RDT: 1995 April 29
!!!YED: 1995 August 31
